!!!OTL: DER LIPP UND DER LENZ
!!!ARE: Europa, Mitteleuropa, Deutschland, Sueddeutschland
!!!SCT: E1044
!!!YEM: Copyright 1995, estate of Helmut Schaffrath.
**kern
*ICvox
*Ivox
*M3/8
*k[b-]
*F:
{8f
=1
8a
16f
16a
16cc
16a
=2
8g
8e}
{8g
=3
8b-
16g
16b-
16dd
16b-
=4
8a
8f}
{8f
=5
8a
16f
16a
16cc
16a
=6
8g
8e}
{8e
=7
8g
16e
16g
16b-
16g
=8
8f
8r}
==
!!!AGN: Tanz - Lied, Dreher
!!!ONB: ESAC (Essen Associative Code) Database: ERK3
!!!AMT: simple triple
!!!AIN: vox
!!!EED: Helmut Schaffrath
!!!EEV: 1.0
*-
